X:30
T:Laura and Lenza Dix.30
M:2/4
L:1/8
Q:1/4=80
S:Anon. MS dated 1811, from Dixon collection, Holton le Moor, Lincs.
R:Air
O:England;Lincolnshire;Holton le Moor
Z:vmp.R.Greig 2012 <http://www.village-music-project.org.uk>
K:Bb
d/c/|B/F/d B/F/d|cf fd/c/|B/F/d B/F/d|cF Fd/c/|!
B/F/d B/F/d|cf “^all s-q in ms”fd/c/|B/F/d c/F/d|dBB:|!
|:=A/B/|c/=B/c/B/ c/d/e/f/|d_B Bc/B/|A/B/c/B/ A/F/G/A/|Bd BA/=B/|!
c/=B/c/B/ c/d/e/f/|d_B “^all q in ms”Bc/B/|A/B/c/B/ A/F/G/A/|B/d/f/b/ B:|

